X:1666
Z:Anton Teljebäck 2009-09-30
O:Västerbotten
M:3/4
L:1/8
K:D
|: d2 dc BA | G2 GF ED | E2 ED EF | GF GA Bc | d2 dc BA | G2 GF ED | ED EF GE | D2 D4 :| 
|: d2 dc de | d2 dc d2 | e2 ed eg | gf fe f2 | d2 dc BA | G2 GF ED | ED EF GE | D2 D4 :| 
M:4/4
|: G2 G2 F2 F2 | G2 AB c3c | dc df ed cA | B2 A2 G2 F2 | G2 G2 F2 F2 | G2 AB c3c | dc df ed cA | B2 AG F4 :|
(:musicend:)

(:music:)
